X: 11199
T: Dunmore Lasses, The
R: reel
M: 4/4
K: Eminor
|:E3 FG3 A|Beed Beed|E2 EF G2 BG|A2 AB GEFD|
E3 FG3 A|Beed e3 f|g2 fd edBG|1 AcBA GEFD:|2 AcBA GEE2||
|:gfeg fedc|Beed Beef|g2 fd edBG|AcBA GEE2|
gfeg fedc|Beed e3f|gbfg edBG|1 AcBA GEE2:|2 AcBA GEFD||

